X:1
T:Jesu redemptor omnium
T:Jesu redemptor omnium / Rex gloriose Martyrum
T:MH 329
T:J Michael Haydn
C:J Michael Haydn
%%score [ 1 2 3 4 ]
L:1/8
M:2/2
K:C
V:1 treble nm="Soprano"
V:2 treble nm="Alto"
V:3 treble-8 nm="Tenor"
V:4 bass nm="Bass"
V:1
 z8 | z8 | G8 | A8 | B4 B4 | c6 B2 | A4 d4 | B8 | z4 A4 | d4 B4 | e6 d2 | c8 | B8 | c4 A4 | G8 | %15
w: ||Je-||su re-|dem- ptor|om- ni-|um|re-|dem- ptor|om- *|||* ni-|um|
w: ||Rex|glo-|* ri-|o- se|Mar- ty-|rum|glo-|* ri-|o- se|Mar-||* ty-|rum|
 z8 | z8 | z4 d4 | c4 c4 | B8 | A6 B2 | c4 G4 | z4 d4 | c4 c4 | B2 A2 G2 F2 | E4 A4 | G4 z4 | G8 | %28
w: ||per-|pes co-|ro-||* na|per-|pes co-|ro- * * na|prae- su-|lum|in|
w: ||co-|ro- na|co-|ro- *|* na|co-|ro- na|con- * * fi-|ten- ti-|um|qui|
 A4 A4 | B4 B4 | c6 d2 | e4 e4 | A8 | z8 | z4 d4 | c8 | B8 | A6 A2 | G8 | z8 | z4 c4 | B8 | A8 | %43
w: hac di-|e cle-|men- *|* ti-|us||cle-|men-||* ti-|us||in-|dul-|ge-|
w: re- spu-|en- tes|ter- *|* re-|a||ter-|||* re-|a||per-|du-||
 G8 | z8 | z4 c4 | B2 A2 G2 F2 | E2 F2 G2 A2 | B2 c2 d2 B2 | e6 dc | B4 c4 | d8- | d4 c4- | c4 B4 | %54
w: as||in-|dul- * * ge-|as _ pre- *|can- * * *|||||* ti-|
w: cis||per-|du- * cis *|ad _ _ coe-|le- * * *|||||* sti-|
 c8 | c8 | B4 c4- | c4 B2 A2 | B6 B2 | c16 |] %60
w: bus|pre-|can- *||* ti-|bus.|
w: a|ad|coe- le-||* sti-|a.|
V:2
 C8 | D8 | E4 E4 | F6 E2 | D4 E4 | C4 E4 | F8 | G2 F2 E2 D2 | C8 | z4 G4 | E8- | E4 ^F4 | G8 | z8 | %14
w: Je-||su re-|dem- ptor|om- ni-|um om-||* * * ni-|um|om-||* ni-|um||
w: Rex|glo-|* ri-|o- se|Mar- ty-|rum Mar-||* * * ty-|rum|Mar-||* ty-|rum||
 z4 G4 | =F4 F4 | E8 | D4 G4 | E4 A4 | G4 G4 | F4 F4 | E8 | D8 | E4 ^F4 | G2 =F2 E2 D2 | C4 F4 | %26
w: per-|pes co-|ro-|na co-|ro- *|na per-|pes co-|ro-|na|prae- *|||
w: co-|on- a|con-|fi- *|ten- ti-|um co-|ro- na|con-|fi-|ten- *|||
 D4 G4 | E8 | ^F6 F2 | G8 | z8 | z4 E4 | =F8 | E8 | D4 D4 | A2 GF E2 F2 | G2 FE D2 E2 | F8 | E8 | %39
w: ||* su-|lum||in|hac|di-|e cle-|men- * * * *||||
w: ||* ti-|um||qui|re-|spu-|en- tes|ter- * * * *||||
 D6 ED | C2 D2 E2 F2 | G4 D4 | F4 F4 | E8 | D8 | C2 D2 E2 F2 | G4 E2 F2 | G6 FE | D6 G2 | E6 F2 | %50
w: ||* ti-|us in-|dul-|ge-|as _ _ _|_ prae- *|can- * *|||
w: ||* re-|a per-|du-|cis|ad _ coe- *|le- * *||||
 G6 FE | D4 G4 | G8 | z4 G4 | E8 | A8 | G4 A4 | G8- | G4 G4 | G16 |] %60
w: |* ti-|bus|prae-|can-||||* ti-|bus.|
w: |* sti-|a|[coe-|le-||||* sti-|a.]|
V:3
 z8 | z8 | z8 | z8 | z8 | z8 | z8 | G8 | A8 | B4 B4 | c6 B2 | A8 | G2 A2 B2 G2 | A2 B2 c2 d2 | %14
w: |||||||Je-||su re-|dem- ptor|om-|||
w: |||||||Rex|glo-|* ri-|o- se|Mar-|||
 e6 e2 | d4 d4 | c4 c4 | B4 G4 | A2 B2 c2 d2 | e2 dc B2 c2 | d2 d2 A4 | z8 | z8 | z8 | G8 | A4 A4 | %26
w: * ni|um per-|pes co-|ro- na|prae- * * *||* su- lum||||in|hac di-|
w: * ty-|rum co-|ro- na|con- fi-|ten- * * *||* ti- um||||qui|re- spu-|
 B4 G4 | c6 B2 | A4 A4 | G4 G4 | A6 B2 | ^c4 c4 | d4 d4 | =c8 | B8 | A2 B2 c2 d2 | e2 dc B2 c2 | %37
w: e cle-|men- *|* ti-|us cle-|men- *|* ti-|us cle-|men-||||
w: en- tes|ter- *|* re-|a ter-||* re-|a ter-|||||
 d2 cB A2 B2 | c2 BA G2 A2 | B2 A2 ^G4 | A8 | z8 | z8 | c8 | B8 | A8 | G8 | G8 | G8- | G4 G4 | G8 | %51
w: ||* * ti-|us|||in-|dul-|ge-|as|prae-|can-|* ti-|bus|
w: ||* * re-|a|||per-|du-|cis|ad|coe-|le-|* sti-|[a|
 z4 f4 | e8 | d8 | c8 | _e8 | d4 _e4 | d8- | d4 d4 | =e16 |] %60
w: in-|dul-|ge-|as|prae-|can- *||* ti-|bus.|
w: per-|du-|cis|ad|coe-|le- *||* sti-|a.]|
V:4
 z8 | z8 | z8 | z8 | z8 | C,8 | D,8 | E,4 E,4 | F,6 E,2 | D,4 D,4 | C,8 | z8 | z4 G,4 | F,4 F,4 | %14
w: |||||Je-||su re-|dem- ptor|om- ni-|um||per-|pes co-|
w: |||||Rex|glo-|* ri-|o- se|Mar- ty-|rum||co-|ro- na|
 E,4 C,4 | D,2 E,2 F,2 G,2 | A,4 E,4 | G,8 | z8 | z8 | z4 D,4 | C,4 C,4 | B,,4 B,,4 | A,,6 A,,2 | %24
w: ro- na|Prae- * * *|* su-|lum|||per-|pes co-|ron- a|prae- su-|
w: con- fi-|ten- * * *|* ti-|um|||co-|ro- na|con- fi-|ten- ti-|
 G,,8 | z8 | z8 | z8 | z8 | z4 G,4 | F,4 F,4 | E,4 E,4 | D,2 E,2 F,2 G,2 | A,2 G,F, E,2 F,2 | %34
w: lum|||||in|hac di-|e cle-|men- * * *||
w: um|||||qui|re- spu-|en- tes|ter- * * *||
 G,2 F,E, D,2 E,2 | F,3 F, C,4 | z8 | z8 | C,8 | B,,8 | A,,8 | G,,2 A,,2 B,,2 C,2 | %42
w: |* ti- us|||in-|dul-|ge-|as _ prae- *|
w: |* re- a|||per-|du-|cis|ad _ coe- *|
 D,2 C,B,, A,,2 B,,2 | C,2 D,2 E,2 F,2 | G,4 G,,4 | A,,2 B,,2 C,2 D,2 | E,6 D,2 | C,2 D,2 E,2 F,2 | %48
w: can- * * * *|* * * ti-|bus prae-|can- * * *|||
w: le- * * * *|* * * sti-|a ad|_ _ coe- *|le- *||
 G,4 G,,4 | C,6 D,2 | E,6 D,C, | B,,6 B,,2 | C,4 E,4 | G,8 | A,6 G,2 | ^F,8 | G,4 ^F,4 | G,8- | %58
w: |||* ti-|bus prae-|can-|||||
w: |||* sti-|a coe-|le-|||||
 G,4 G,4 | C,16 |] %60
w: * ti-|bus.|
w: * sti-|a.|

